assets/On! arrow/Flat/on!_arrow_flat.svg

<svg width="32" height="32" viewBox="0 0 32 32" fill="none" xmlns="http://www.w3.org/2000/svg">
<path d="M22.59 2.22426L29.73 8.72426C30.09 9.04426 30.09 9.61426 29.73 9.93426L22.59 16.4343C22.06 16.9143 21.21 16.5343 21.21 15.8243V12.9743C21.21 12.5243 20.84 12.1543 20.39 12.1543H11.61C11.16 12.1543 10.79 12.5243 10.79 12.9743V15.8243C10.79 16.5443 9.94 16.9143 9.41 16.4343L2.27 9.93426C1.91 9.60426 1.91 9.04426 2.27 8.71426L9.41 2.21426C9.94 1.73426 10.79 2.11426 10.79 2.82426V5.68426C10.79 6.13426 11.16 6.50426 11.61 6.50426H20.39C20.84 6.50426 21.21 6.13426 21.21 5.68426V2.83426C21.21 2.11426 22.06 1.74426 22.59 2.22426Z" fill="#321B41"/>
<path d="M22.59 26.5143C22.59 27.0643 23.04 27.5143 23.59 27.5143C24.15 27.5143 24.59 27.0743 24.59 26.5143V21.7043C24.59 21.1543 24.14 20.7043 23.59 20.7043C23.04 20.7043 22.59 21.1543 22.59 21.7043V26.5143Z" fill="#321B41"/>
<path d="M20.4699 30.0043C20.1399 30.0043 19.8199 29.8443 19.6299 29.5543L16.6799 25.0643V29.0043C16.6799 29.5543 16.2299 30.0043 15.6799 30.0043C15.1299 30.0043 14.6799 29.5543 14.6799 29.0043V21.7143C14.6799 21.2743 14.9699 20.8843 15.3899 20.7543C15.8099 20.6243 16.2699 20.7943 16.5099 21.1643L19.4599 25.6543V21.7143C19.4599 21.1643 19.9099 20.7143 20.4599 20.7143C21.0099 20.7143 21.4599 21.1643 21.4599 21.7143V29.0043C21.4599 29.4443 21.1699 29.8343 20.7499 29.9643C20.6599 29.9943 20.5699 30.0043 20.4699 30.0043Z" fill="#321B41"/>
<path d="M10.5899 30.0043C8.83991 30.0043 7.40991 28.5743 7.40991 26.8243V23.8943C7.40991 22.1443 8.83991 20.7143 10.5899 20.7143C12.3399 20.7143 13.7699 22.1443 13.7699 23.8943V26.8243C13.7699 28.5743 12.3399 30.0043 10.5899 30.0043ZM10.5899 22.7143C9.93991 22.7143 9.40991 23.2443 9.40991 23.8943V26.8243C9.40991 27.4743 9.93991 28.0043 10.5899 28.0043C11.2399 28.0043 11.7699 27.4743 11.7699 26.8243V23.8943C11.7699 23.2443 11.2399 22.7143 10.5899 22.7143Z" fill="#321B41"/>
<path d="M23.5899 30.0043C24.0925 30.0043 24.4999 29.5968 24.4999 29.0943C24.4999 28.5917 24.0925 28.1843 23.5899 28.1843C23.0874 28.1843 22.6799 28.5917 22.6799 29.0943C22.6799 29.5968 23.0874 30.0043 23.5899 30.0043Z" fill="#321B41"/>
</svg>

<svg xmlns="http://www.w3.org/2000/svg" width="32" height="32" fill="none"><path fill="#321B41" d="m22.59 2.224 7.14 6.5c.36.32.36.89 0 1.21l-7.14 6.5c-.53.48-1.38.1-1.38-.61v-2.85c0-.45-.37-.82-.82-.82h-8.78c-.45 0-.82.37-.82.82v2.85c0 .72-.85 1.09-1.38.61l-7.14-6.5a.824.824 0 0 1 0-1.22l7.14-6.5c.53-.48 1.38-.1 1.38.61v2.86c0 .45.37.82.82.82h8.78c.45 0 .82-.37.82-.82v-2.85c0-.72.85-1.09 1.38-.61ZM22.59 26.514c0 .55.45 1 1 1 .56 0 1-.44 1-1v-4.81c0-.55-.45-1-1-1s-1 .45-1 1v4.81ZM20.47 30.004c-.33 0-.65-.16-.84-.45l-2.95-4.49v3.94c0 .55-.45 1-1 1s-1-.45-1-1v-7.29c0-.44.29-.83.71-.96s.88.04 1.12.41l2.95 4.49v-3.94c0-.55.45-1 1-1s1 .45 1 1v7.29c0 .44-.29.83-.71.96-.09.03-.18.04-.28.04ZM10.59 30.004c-1.75 0-3.18-1.43-3.18-3.18v-2.93c0-1.75 1.43-3.18 3.18-3.18 1.75 0 3.18 1.43 3.18 3.18v2.93c0 1.75-1.43 3.18-3.18 3.18Zm0-7.29c-.65 0-1.18.53-1.18 1.18v2.93c0 .65.53 1.18 1.18 1.18.65 0 1.18-.53 1.18-1.18v-2.93c0-.65-.53-1.18-1.18-1.18ZM23.59 30.004a.91.91 0 1 0 0-1.82.91.91 0 0 0 0 1.82Z"/></svg>
